X:1
T:Drowsy Maggie
C:Traditional, Arr. Moore
R:Reel
M:C
L:1/4
K:HP
Z:Stephen Beitzel
[| {g}e A/a/ e/d/{g}B/d/ | {g}e/f/{a}g/e/ {g}d/G/{g}B/d/ |
{g}e A/a/ e/d/{g}B/d/ | {g}e/f/{a}g/e/ {g}d/G/{g}B/d/ :|]
[| {g}e/A/{g}A/{GAG}A/ {g}e/A/{g}B/d/ | {g}e/A/{g}A/{GAG}A/ {g}B/G/{g}B/d/ |
{g}e/A/{g}A/{GAG}A/ {g}e/A/{g}B/d/ | {g}e/f/{a}g/e/ {g}d/G/{g}B/d/ :|]